X:1
T:Still ruht der See
T:Still ruht der See
T:Heinrich Pfeil
T:Heinrich Pfeil 
C:Heinrich Pfeil
%%score [ 1 2 3 4 ]
L:1/8
Q:1/4=61
M:3/4
K:G
V:1 treble nm="Soprano"
V:2 treble nm="Alto"
V:3 treble-8 nm="Tenor"
V:4 bass nm="Bass"
V:1
"^Langsam"!p! D B, C | D3 D G A | G2!<(! F3 F!<)! | A3/2 ^G/ A F E!>(! D | D3!>)!!<(! D G A!<)! | %5
w: 1.Still ruht der|See, die Vög- lein|schla- fen, ein|Flü- stern nur, du hörst es|kaum. Der A- bend|
 B3 B B B | B2 A A A A | A3 c B A | G3!p! G G G | A3 E F3/2 G/ | !fermata!G2 z |] %11
w: nahn, nun senkt sich|nie- der auf die Na-|tur, ein sü- ßer|Traum, auf die Na-|tur, ein sü- ßer|Traum.|
V:2
!p! D B, C | D3 D D D | D2!<(! D3 D!<)! | F3/2 F/ F D C!>(! C | B,3!>)!!<(! D D F!<)! | G3 G =F F | %6
w: 1.Still ruht der|See, die Vög- lein|schla- fen, ein|Flü- stern nur, du hörst es|kaum. Der A- bend|nahn, nun senkt sich|
 E2 E C D E | ^F3 F ^D D | E3!p! E E =F | E3 E D3/2 D/ | !fermata!D2 z |] %11
w: nie- der auf die Na-|tur, ein sü- ßer|Traum, auf die Na-|tur, ein sü- ßer|Traum.|
V:3
!p! B G A | B3 B B c | B2!<(! A3 A!<)! | c3/2 B/ c A G!>(! F | G3!>)!!<(! c B d!<)! | d3 d d d | %6
w: 1.Still ruht der|See, die Vög- lein|schla- fen, ein|Flü- stern nur, du hörst es|kaum. Der A- bend|nahn, nun senkt sich|
 c2 c A A A | A3 A B B | B3!p! B B B | c3 c c3/2 B/ | !fermata!B2 z |] %11
w: nie- der auf die Na-|tur, ein sü- ßer|Traum, auf die Na-|tur, ein sü- ßer|Traum.|
V:4
!p! B, G, A, | B,3 B, G, G, | D,2!<(! D,3 D,!<)! | D,3/2 D,/ D, D, D,!>(! D, | %4
w: 1.Still ruht der|See, die Vög- lein|schla- fen, ein|Flü- stern nur, du hörst es|
 G,3!>)!!<(! A, B, A,!<)! | G,3 G, ^G, G, | %6
w: kaum. Der A- bend|nahn, nun senkt sich|
"_2.Still ruht der See, durch das Gezweige \nder heil'ge Odem Gottes weht.\nDie Blümlein an dem Seegestade, \nsie sprechen fromm ihr Nachtgebet.\n\n\n3.Still ruht der See, vom Himmelsdome\ndie Strene friedsam nieder seh'n.\nO Menschenherz gib' dich zufrieden,\nauch du, auch du wirst schlafen geh'n.\n" A,2 A, A,, B,, C, | %7
w: nie- der auf die Na-|
 D,3 D, B,, B,, | E,3!p! E, E, D, | C,3 A,, D,3/2 G,/ | !fermata!G,2 z |] %11
w: tur, ein sü- ßer|Traum, auf die Na-|tur, ein sü- ßer|Traum.|

